_includes/icons/ios-cafe.svg

<svg fill="#666" height="50" viewBox="0 0 50 50" width="50" xmlns="http://www.w3.org/2000/svg"><path d="m25.984375 1.984375c-.550781.011719-.992187.464844-.984375 1.015625 0 3.054688-1.167969 3.964844-2.660156 5.304688-1.492188 1.335937-3.324219 3.105468-3.324219 6.695312-.003906.359375.183594.695313.496094.878906.3125.179688.695312.179688 1.007812 0 .3125-.183593.5-.519531.496094-.878906 0-2.984375 1.160156-3.863281 2.660156-5.207031s3.324219-3.144531 3.324219-6.792969c.003906-.269531-.101562-.53125-.292969-.722656-.191406-.191406-.453125-.296875-.722656-.292969zm5.007813 5c-.550782.011719-.992188.464844-.984375 1.015625 0 1.953125-.671875 2.417969-1.667969 3.304688-.996094.886718-2.339844 2.207031-2.339844 4.695312-.003906.359375.183594.695313.496094.878906.3125.179688.695312.179688 1.007812 0 .3125-.183593.5-.519531.496094-.878906 0-1.875.660156-2.304687 1.667969-3.203125 1.007812-.894531 2.339844-2.25 2.339844-4.796875.003906-.269531-.101563-.53125-.292969-.722656s-.453125-.296875-.722656-.292969zm-19.992188 12.015625c-.550781 0-1 .449219-1 1v13c0 3.273438 1.589844 6.175781 4.027344 8h-7.027344c-.550781 0-1 .449219-1 1 0 1.773438 1.019531 3.28125 2.347656 4.324219 1.328125 1.039062 3 1.675781 4.652344 1.675781h22c1.652344 0 3.324219-.636719 4.652344-1.675781 1.328125-1.042969 2.347656-2.550781 2.347656-4.324219 0-.550781-.449219-1-1-1h-7.027344c2.199219-1.648437 3.707032-4.167969 3.980469-7.046875 2.203125-.21875 3.816406-1.210937 4.746094-2.707031 1.027344-1.664063 1.273437-3.777344 1.285156-6.074219.003906-.007812.003906-.015625.003906-.023437.007813-.050782.011719-.097657.011719-.148438 0-1.644531-1.355469-3-3-3h-3v-2c0-.550781-.449219-1-1-1zm1 2h24v11.832031c-.015625.097657-.019531.195313-.003906.292969-.070313 4.371094-3.609375 7.875-7.996094 7.875h-8c-4.429687 0-8-3.570312-8-8zm26 3h3c.566406 0 1 .433594 1 1 0 2.214844-.289062 4.042969-1 5.191406-.597656.960938-1.441406 1.570313-3 1.746094zm-29.710937 19h31.421875c-.253907.632813-.648438 1.242188-1.292969 1.75-.980469.765625-2.308594 1.25-3.417969 1.25h-22c-1.109375 0-2.4375-.484375-3.417969-1.25-.644531-.507812-1.039062-1.117187-1.292968-1.75z"/></svg>

<svg xmlns="http://www.w3.org/2000/svg" viewBox="0 0 50 50" width="50" height="50" fill="#666"><path d="M 25.984375 1.984375 C 25.433594 1.996094 24.992188 2.449219 25 3 C 25 6.054688 23.832031 6.964844 22.339844 8.304688 C 20.847656 9.640625 19.015625 11.410156 19.015625 15 C 19.011719 15.359375 19.199219 15.695313 19.511719 15.878906 C 19.824219 16.058594 20.207031 16.058594 20.519531 15.878906 C 20.832031 15.695313 21.019531 15.359375 21.015625 15 C 21.015625 12.015625 22.175781 11.136719 23.675781 9.792969 C 25.175781 8.449219 27 6.648438 27 3 C 27.003906 2.730469 26.898438 2.46875 26.707031 2.277344 C 26.515625 2.085938 26.253906 1.980469 25.984375 1.984375 Z M 30.992188 6.984375 C 30.441406 6.996094 30 7.449219 30.007813 8 C 30.007813 9.953125 29.335938 10.417969 28.339844 11.304688 C 27.34375 12.191406 26 13.511719 26 16 C 25.996094 16.359375 26.183594 16.695313 26.496094 16.878906 C 26.808594 17.058594 27.191406 17.058594 27.503906 16.878906 C 27.816406 16.695313 28.003906 16.359375 28 16 C 28 14.125 28.660156 13.695313 29.667969 12.796875 C 30.675781 11.902344 32.007813 10.546875 32.007813 8 C 32.011719 7.730469 31.90625 7.46875 31.714844 7.277344 C 31.523438 7.085938 31.261719 6.980469 30.992188 6.984375 Z M 11 19 C 10.449219 19 10 19.449219 10 20 L 10 33 C 10 36.273438 11.589844 39.175781 14.027344 41 L 7 41 C 6.449219 41 6 41.449219 6 42 C 6 43.773438 7.019531 45.28125 8.347656 46.324219 C 9.675781 47.363281 11.347656 48 13 48 L 35 48 C 36.652344 48 38.324219 47.363281 39.652344 46.324219 C 40.980469 45.28125 42 43.773438 42 42 C 42 41.449219 41.550781 41 41 41 L 33.972656 41 C 36.171875 39.351563 37.679688 36.832031 37.953125 33.953125 C 40.15625 33.734375 41.769531 32.742188 42.699219 31.246094 C 43.726563 29.582031 43.972656 27.46875 43.984375 25.171875 C 43.988281 25.164063 43.988281 25.15625 43.988281 25.148438 C 43.996094 25.097656 44 25.050781 44 25 C 44 23.355469 42.644531 22 41 22 L 38 22 L 38 20 C 38 19.449219 37.550781 19 37 19 Z M 12 21 L 36 21 L 36 32.832031 C 35.984375 32.929688 35.980469 33.027344 35.996094 33.125 C 35.925781 37.496094 32.386719 41 28 41 L 20 41 C 15.570313 41 12 37.429688 12 33 Z M 38 24 L 41 24 C 41.566406 24 42 24.433594 42 25 C 42 27.214844 41.710938 29.042969 41 30.191406 C 40.402344 31.152344 39.558594 31.761719 38 31.9375 Z M 8.289063 43 L 39.710938 43 C 39.457031 43.632813 39.0625 44.242188 38.417969 44.75 C 37.4375 45.515625 36.109375 46 35 46 L 13 46 C 11.890625 46 10.5625 45.515625 9.582031 44.75 C 8.9375 44.242188 8.542969 43.632813 8.289063 43 Z"/></svg>
